src/resources/assets/chevron-right.svg

<svg xmlns="http://www.w3.org/2000/svg" width="16" height="16"><path d="M 5.644531 3.144531 C 5.453125 3.339844 5.453125 3.660156 5.644531 3.855469 L 9.792969 8 L 5.644531 12.144531 C 5.453125 12.339844 5.453125 12.660156 5.644531 12.855469 C 5.839844 13.046875 6.160156 13.046875 6.355469 12.855469 L 10.855469 8.355469 C 11.046875 8.160156 11.046875 7.839844 10.855469 7.644531 L 6.355469 3.144531 C 6.160156 2.953125 5.839844 2.953125 5.644531 3.144531 Z M 5.644531 3.144531" fill="#ddd"/></svg>

<svg xmlns="http://www.w3.org/2000/svg" width="16" height="16"><path d="M5.645 3.145a.512.512 0 000 .71L9.793 8l-4.148 4.145a.512.512 0 000 .71.512.512 0 00.71 0l4.5-4.5a.512.512 0 000-.71l-4.5-4.5a.512.512 0 00-.71 0zm0 0" fill="#ddd"/></svg>
